Adwaita++/actions/22/view-split-effect.svg

<svg fill="none" height="22" viewBox="0 0 22 22" width="22" xmlns="http://www.w3.org/2000/svg">
  <g fill="#444">
    <path d="m9.993 14.805-2.81 1.686.563-3.372-2.246-2.246h2.808l1.686-3.373z"/>
    <g clip-rule="evenodd" fill-rule="evenodd">
      <path d="m17.5 6.5h-13v11h13zm-12.5-3.5c-1.10457 0-2 .89543-2 2v12c0 1.1046.89543 2 2 2h12c1.1046 0 2-.8954 2-2v-12c0-1.10457-.8954-2-2-2z"/>
      <path d="m11 7v-1h2v1zm0 3v-2h2v2zm0 3v-2h2v2zm0 3v-2h2v2zm0 2v-1h2v1z"/>
    </g>
  </g>
</svg>

<svg xmlns="http://www.w3.org/2000/svg" fill="none" width="22" height="22" viewBox="0 0 22 22">
 <path fill="#444" d="M9.993 14.805L7.183 16.491L7.746 13.119L5.5 10.873H8.308L9.994 7.5L9.993 14.805Z"/>
 <path fill="#444" fill-rule="evenodd" d="M17.5 6.5H4.5V17.5H17.5V6.5ZM5 3C3.89543 3 3 3.89543 3 5V17C3 18.1046 3.89543 19 5 19H17C18.1046 19 19 18.1046 19 17V5C19 3.89543 18.1046 3 17 3H5Z" clip-rule="evenodd"/>
 <path fill="#444" fill-rule="evenodd" d="M11 7V6H13V7H11ZM11 10V8H13V10H11ZM11 13V11H13V13H11ZM11 16V14H13V16H11ZM11 18V17H13V18H11Z" clip-rule="evenodd"/>
</svg>
